**kern	**kern
*staff2	*staff1
*clefF4	*clefG2
*k[]	*k[]
*M2/4	*M2/4
*C:	*C:
=	=
12AA-L	(4c 4cc
12E-	.
12A-J	.
12AA-L	4A- 4a-
12C	.
12GJ	.
=342	=342
12AA-L	4d- 4dd-
12F	.
12A-J	.
12AA-L	4c 4cc
12E-	.
12A-J	.
=343	=343
12AA-L	4c 4cc
12E-	.
12A-J	.
12AA-L	4B-) 4b-
12D-	.
12GJ	.
=344	=344
12AA-L	(2A- 2a-
12C	.
12E-J	.
12AA-L	.
12C	.
12E-J	.
=345	=345
12FFL	2A 2a
12C	.
12E-J	.
12FFL	.
12C	.
12E-J	.
=346	=346
12BB-L	2B- 2b-
12D-	.
12FJ	.
12BB-L	.
12D-	.
12FJ	.
=347	=347
12GGL	2B 2b
12D	.
12FJ	.
12GGL	.
12D	.
12FJ	.
=348	=348
12GGL	2f) 2b 2ff
12D	.
12FJ	.
12GGL	.
12D	.
12FJ	.
=349	=349
*-	*-
